X: 24802
T: Maggie In The Woods
R: polka
M: 2/4
K: Gmajor
|:B/A/|GD GA|Be e>e|dB B/A/G/A/|BA AB/A/|
GD GA|Be e>e|dB AB/A/|G2 G:|
|:d|gf ed|gB B>c|dB B/A/G/A/|BA A>d|
gf ed|gB B>c|dB AB/A/|G2 G:|

